findly-builder/apps/searchassist/src/assets/icons/overview/web.svg

<svg width="16" height="16" viewBox="0 0 16 16" fill="none" xmlns="http://www.w3.org/2000/svg">
<path d="M16 8C16 12.418 12.418 16 8 16C3.582 16 0 12.418 0 8C0 3.582 3.582 0 8 0C12.418 0 16 3.582 16 8Z" fill="#0D6EFD"/>
<path d="M14.8001 8C14.8001 7.014 14.6405 6.0728 14.3617 5.2H15.4861C15.3837 4.926 15.2677 4.6588 15.1369 4.4H14.0641C12.9421 1.794 10.6485 0 8.00007 0C5.35167 0 3.05807 1.794 1.93567 4.4H0.862872C0.732072 4.6588 0.616472 4.926 0.513672 5.2H1.63807C1.35967 6.0728 1.20007 7.014 1.20007 8C1.20007 8.986 1.35967 9.9272 1.63847 10.8H0.514072C0.616472 11.074 0.732472 11.3412 0.863272 11.6H1.93607C3.05847 14.206 5.35207 16 8.00047 16C10.6489 16 12.9425 14.206 14.0649 11.6H15.1377C15.2685 11.3412 15.3841 11.074 15.4869 10.8H14.3625C14.6405 9.9272 14.8001 8.986 14.8001 8ZM14.0001 8C14.0001 8.9924 13.8317 9.9388 13.5277 10.8H11.0041C11.1333 9.8936 11.2001 8.94 11.2001 8C11.2001 7.06 11.1337 6.1064 11.0041 5.2H13.5277C13.8317 6.0612 14.0001 7.0076 14.0001 8ZM8.00007 15.2C7.22567 15.2 6.39167 13.822 5.93927 11.6H10.0609C9.60847 13.822 8.77447 15.2 8.00007 15.2ZM5.80007 10.8C5.67407 9.9548 5.60007 9.0156 5.60007 8C5.60007 6.9844 5.67407 6.0452 5.80007 5.2H10.2001C10.3261 6.0452 10.4001 6.9844 10.4001 8C10.4001 9.0156 10.3261 9.9548 10.2001 10.8H5.80007ZM8.00007 0.8C8.77447 0.8 9.60847 2.178 10.0609 4.4H5.93927C6.39167 2.178 7.22567 0.8 8.00007 0.8ZM13.1881 4.4H10.8713C10.6157 3.068 10.2141 1.8912 9.67367 1.0908C11.1689 1.6132 12.4217 2.8152 13.1881 4.4ZM6.32647 1.0908C5.78647 1.8916 5.38447 3.068 5.12887 4.4H2.81207C3.57847 2.8152 4.83127 1.6132 6.32647 1.0908ZM2.00007 8C2.00007 7.0076 2.16847 6.0612 2.47247 5.2H4.99607C4.86647 6.1064 4.80007 7.06 4.80007 8C4.80007 8.94 4.86647 9.8936 4.99607 10.8H2.47247C2.16847 9.9388 2.00007 8.9924 2.00007 8ZM2.81207 11.6H5.12887C5.38447 12.932 5.78607 14.1088 6.32647 14.9092C4.83127 14.3868 3.57847 13.1848 2.81207 11.6ZM9.67367 14.9092C10.2137 14.1084 10.6157 12.932 10.8713 11.6H13.1881C12.4217 13.1848 11.1689 14.3868 9.67367 14.9092Z" fill="#85B7FE"/>
<path opacity="0.1" d="M12.506 10.564L9.34799 7.406C9.18519 7.2436 8.94399 7.1968 8.73599 7.2888C8.53199 7.3764 8.40039 7.5764 8.40039 7.7984V12.3176C8.40039 12.8392 8.95759 13.0532 9.31599 12.746L9.94919 12.2184L10.424 13.3104C10.5152 13.5184 10.8268 13.7188 11.1544 13.5972L11.6924 13.3632C11.9752 13.2432 12.1276 12.9492 11.9808 12.6328L11.52 11.572L12.1608 11.5144C12.6712 11.5144 12.8604 10.9152 12.506 10.564Z" fill="black"/>
<path opacity="0.1" d="M12.3641 10.7053L9.2061 7.5473C9.0997 7.4413 8.9461 7.4153 8.8145 7.4725C8.6865 7.5281 8.6001 7.6533 8.6001 7.7981V12.3173C8.6001 12.6453 8.9569 12.7889 9.1877 12.5921L10.0257 11.8933L10.6065 13.2301C10.6689 13.3733 10.8705 13.4913 11.0737 13.4137L11.6121 13.1797C11.7929 13.1025 11.8869 12.9101 11.7965 12.7125L11.2249 11.3977L12.1421 11.3157C12.4649 11.3093 12.5889 10.9285 12.3641 10.7053Z" fill="black"/>
<path d="M12.2227 10.8037L9.06469 7.64571C9.01509 7.59611 8.94789 7.58971 8.89349 7.61331C8.84109 7.63611 8.80029 7.68731 8.80029 7.75531V12.2741C8.80029 12.4081 8.95669 12.4813 9.05989 12.3957L10.1031 11.5257L10.7903 13.1069C10.8243 13.1853 10.9159 13.2213 10.9943 13.1873L11.5331 12.9529C11.6115 12.9189 11.6475 12.8273 11.6135 12.7489L10.9315 11.1797L12.1251 11.0729C12.2587 11.0609 12.3179 10.8985 12.2227 10.8037Z" fill="white"/>
</svg>

<svg width="16" height="16" fill="none" xmlns="http://www.w3.org/2000/svg"><path d="M16 8A8 8 0 1 1 0 8a8 8 0 0 1 16 0Z" fill="#0D6EFD"/><path d="M14.8 8c0-.986-.16-1.927-.438-2.8h1.124a7.916 7.916 0 0 0-.35-.8h-1.072C12.942 1.794 10.65 0 8 0 5.352 0 3.058 1.794 1.936 4.4H.863c-.13.259-.247.526-.35.8h1.125A9.203 9.203 0 0 0 1.2 8c0 .986.16 1.927.438 2.8H.514c.102.274.218.541.35.8h1.072C3.058 14.206 5.352 16 8 16c2.649 0 4.943-1.794 6.065-4.4h1.073c.13-.259.246-.526.349-.8h-1.124A9.216 9.216 0 0 0 14.8 8ZM14 8c0 .992-.168 1.939-.472 2.8h-2.524a20.035 20.035 0 0 0 0-5.6h2.524c.304.861.472 1.808.472 2.8Zm-6 7.2c-.774 0-1.608-1.378-2.06-3.6h4.12c-.452 2.222-1.286 3.6-2.06 3.6Zm-2.2-4.4A19.05 19.05 0 0 1 5.6 8c0-1.016.074-1.955.2-2.8h4.4c.126.845.2 1.784.2 2.8a19.05 19.05 0 0 1-.2 2.8H5.8ZM8 .8c.774 0 1.608 1.378 2.06 3.6H5.94C6.391 2.178 7.225.8 8 .8Zm5.188 3.6h-2.317c-.255-1.332-.657-2.509-1.197-3.31 1.495.523 2.748 1.725 3.514 3.31ZM6.326 1.09c-.54.802-.942 1.978-1.197 3.31H2.812c.766-1.585 2.02-2.787 3.514-3.31ZM2 8c0-.992.168-1.939.472-2.8h2.524a19.975 19.975 0 0 0 0 5.6H2.472A8.414 8.414 0 0 1 2 8Zm.812 3.6H5.13c.255 1.332.657 2.509 1.197 3.31-1.495-.523-2.748-1.725-3.514-3.31Zm6.862 3.31c.54-.802.942-1.978 1.197-3.31h2.317c-.766 1.585-2.02 2.787-3.514 3.31Z" fill="#85B7FE"/><path opacity=".1" d="M12.506 10.564 9.348 7.406a.554.554 0 0 0-.948.392v4.52c0 .521.558.735.916.428l.633-.528.475 1.092a.592.592 0 0 0 .73.287l.538-.234c.283-.12.436-.414.289-.73l-.461-1.061.64-.058c.511 0 .7-.599.346-.95Z" fill="#000"/><path opacity=".1" d="M12.364 10.705 9.206 7.547a.354.354 0 0 0-.606.25v4.52c0 .328.357.472.588.275l.838-.699.58 1.337a.374.374 0 0 0 .468.184l.538-.234c.18-.078.275-.27.184-.467l-.571-1.315.917-.082c.323-.007.447-.388.222-.61Z" fill="#000"/><path d="M12.223 10.804 9.065 7.646a.152.152 0 0 0-.172-.033.153.153 0 0 0-.093.142v4.52c0 .133.157.206.26.12l1.043-.87.687 1.582a.155.155 0 0 0 .204.08l.54-.234a.155.155 0 0 0 .08-.204l-.683-1.57 1.194-.106a.158.158 0 0 0 .098-.27Z" fill="#fff"/></svg>
